; HEADER_BLOCK_START
; generated by Creality_Print V6.1.2.2458 on 2025-06-26 at 15:51:58
; total layer number: 192
; filament_density: 1.24
; filament_diameter: 1.75
; max_z_height: 47.95
; HEADER_BLOCK_END

; MINX = 80.00
; MINY = 94.50
; MINZ = 0.00
; MAXX = 140.00
; MAXY = 125.50
; MAXZ = 48.00

; THUMBNAIL_BLOCK_START

;
; THUMBNAIL_BLOCK_END

; THUMBNAIL_BLOCK_START

;
; THUMBNAIL_BLOCK_END

; external perimeters extrusion width = 0.50mm
; perimeters extrusion width = 0.50mm
; infill extrusion width = 0.50mm
; solid infill extrusion width = 0.50mm
; top infill extrusion width = 0.50mm
; first layer extrusion width = 0.50mm

; EXECUTABLE_BLOCK_START
EXCLUDE_OBJECT_DEFINE NAME=3DBenchy.stl_id_0_copy_0 CENTER=110,110 POLYGON=[[116.805,94.52],[117.676,94.558],[119.039,94.655],[119.841,94.782],[120.967,95.068],[121.896,95.334],[122.752,95.607],[123.822,95.987],[124.662,96.316],[125.547,96.693],[126.363,97.07],[127.366,97.572],[128.153,97.999],[128.93,98.449],[129.885,99.043],[130.637,99.544],[131.376,100.067],[132.104,100.612],[132.82,101.18],[133.523,101.77],[134.214,102.384],[134.832,102.962],[135.647,103.773],[136.282,104.443],[137.05,105.306],[137.499,105.838],[138.081,106.563],[138.645,107.305],[139.192,108.065],[139.651,108.745],[139.769,108.962],[139.856,109.175],[139.929,109.413],[139.975,109.652],[139.999,109.905],[139.996,110.149],[139.968,110.391],[139.916,110.632],[139.797,110.974],[139.624,111.301],[139.071,112.106],[138.52,112.864],[137.659,113.968],[136.907,114.86],[136.008,115.85],[135.2,116.68],[134.368,117.475],[133.338,118.388],[132.275,119.256],[131.359,119.945],[130.421,120.603],[129.458,121.228],[128.672,121.704],[127.595,122.307],[126.392,122.916],[125.374,123.383],[124.341,123.813],[123.293,124.206],[122.206,124.57],[121.142,124.884],[119.843,125.218],[119.316,125.319],[117.688,125.441],[116.778,125.481],[115.907,125.5],[114.456,125.491],[113.133,125.437],[111.849,125.345],[110.373,125.188],[81.7925,121.215],[81.5845,121.172],[81.3615,121.101],[81.1975,121.03],[80.9925,120.917],[80.8395,120.811],[80.6615,120.66],[80.5385,120.534],[80.4065,120.37],[80.2505,120.122],[80.1275,119.849],[80.0345,119.507],[79.9995,119.179],[79.9995,100.816],[80.0285,100.525],[80.0805,100.296],[80.1695,100.047],[80.2635,99.854],[80.4055,99.631],[80.5385,99.466],[80.7045,99.3],[80.8865,99.154],[81.0715,99.036],[81.3115,98.919],[81.5475,98.838],[81.7975,98.784],[110.055,94.853],[111.596,94.678],[112.987,94.571],[114.46,94.509],[115.934,94.5],[116.805,94.52]]
M73 P0 R19
M106 S0
M106 P2 S0
;TYPE:Custom
START_PRINT EXTRUDER_TEMP=210 BED_TEMP=50
T0
M204 S2000
M104 S210
G1 Z3 F600
M83
G92 E0
G1 Z1 F600
G90
G21
M83 ; use relative distances for extrusion
G1 E-.8 F2400
M106 S0
;LAYER_CHANGE
;Z:0.2
;HEIGHT:0.2
;BEFORE_LAYER_CHANGE
;0.2
G92 E0

;AFTER_LAYER_CHANGE
;0.2
;_SET_FAN_SPEED_CHANGING_LAYER
SET_VELOCITY_LIMIT ACCEL=5000 ACCEL_TO_DECEL=2500
SET_VELOCITY_LIMIT SQUARE_CORNER_VELOCITY=20
; printing object 3DBenchy.stl id:0 copy 0
EXCLUDE_OBJECT_START NAME=3DBenchy.stl_id_0_copy_0
G1 Z.4 F30000
G1 X84.289 Y103.104
G1 Z.2
G1 E.8 F2400
;TYPE:Brim
;WIDTH:0.5
G1 F6000
G1 X84.558 Y102.919 E.0118
G1 X84.859 Y102.766 E.01219
G1 X85.159 Y102.662 E.01145
G1 X85.405 Y102.604 E.00912
G1 X85.733 Y102.565 E.01193
G1 X109.113 Y101.144 E.84573
G1 X110.294 Y101.117 E.04266
G1 X111.21 Y101.158 E.03311
G1 X112.078 Y101.246 E.03151
G1 X112.947 Y101.385 E.03174
G1 X114.107 Y101.65 E.04299
G1 X114.954 Y101.902 E.03191
G1 X116.081 Y102.321 E.0434
G1 X116.991 Y102.735 E.03611
G1 X117.962 Y103.258 E.0398
G1 X118.724 Y103.733 E.03241
G1 X119.695 Y104.432 E.04323
G1 X120.528 Y105.131 E.03924
G1 X121.246 Y105.819 E.03592
G1 X121.913 Y106.544 E.03556
G1 X122.571 Y107.36 E.03783
G1 X123.141 Y108.168 E.03572
G1 X123.466 Y108.684 E.02203
G1 X123.69 Y109.083 E.0165
G1 X123.834 Y109.472 E.01499
G1 X123.899 Y109.888 E.0152
G1 X123.891 Y110.22 E.012
G1 X123.809 Y110.615 E.01456
G1 X123.711 Y110.874 E.01
G1 X123.612 Y111.068 E.00786
G1 X123.16 Y111.803 E.03116
G1 X122.67 Y112.507 E.03097
G1 X122.247 Y113.057 E.02505
G1 X121.591 Y113.817 E.03624
G1 X121.068 Y114.36 E.02723
G1 X120.574 Y114.828 E.02455
G1 X119.972 Y115.346 E.02868
G1 X119.367 Y115.816 E.02766
G1 X118.802 Y116.215 E.02497
G1 X118.044 Y116.694 E.03237
G1 X116.996 Y117.262 E.04304
G1 X116.192 Y117.632 E.03199
G1 X115.235 Y118.003 E.03703
G1 X113.997 Y118.379 E.04671
G1 X113.294 Y118.545 E.0261
G1 X112.749 Y118.651 E.02003
G1 X111.815 Y118.785 E.03409
G1 X110.822 Y118.866 E.03595
G1 X109.801 Y118.882 E.0369
G1 X109.099 Y118.855 E.02534
G1 X85.577 Y117.421 E.85089
G1 X85.367 Y117.389 E.00765
G1 X85.018 Y117.295 E.01307
G1 X84.709 Y117.163 E.01212
G1 X84.448 Y117.012 E.01088
G1 X84.263 Y116.875 E.00833
G1 X84.023 Y116.65 E.01185
G1 X83.846 Y116.436 E.01004
G1 X83.698 Y116.211 E.00975
G1 X83.541 Y115.891 E.01284
G1 X83.43 Y115.554 E.01281
G1 X83.366 Y115.214 E.0125
G1 X83.343 Y114.906 E.01116
G1 X83.347 Y104.984 E.35825
G1 X83.392 Y104.622 E.01316
G1 X83.471 Y104.304 E.01184
G1 X83.552 Y104.083 E.00849
G1 X83.708 Y103.771 E.01258
G1 X83.896 Y103.499 E.01194
G1 X84.118 Y103.254 E.01193
G1 X84.259 Y103.131 E.00677
G1 X84.551 Y103.487 F30000
G1 F6000
G1 X84.662 Y103.396 E.00519
G1 X84.89 Y103.257 E.00965
G1 X85.3 Y103.097 E.0159
G1 X85.757 Y103.021 E.01671
G1 X109.152 Y101.599 E.84627
G1 X110.078 Y101.573 E.03346
G1 X111.169 Y101.613 E.03939
G1 X112.014 Y101.699 E.03069
G1 X112.85 Y101.832 E.03055
G1 X113.97 Y102.086 E.04148
G1 X114.814 Y102.337 E.0318
G1 X115.904 Y102.742 E.04196
G1 X116.786 Y103.144 E.03501
G1 X117.711 Y103.64 E.03789
G1 X118.474 Y104.115 E.03244
G1 X119.416 Y104.794 E.04195
G1 X120.226 Y105.474 E.03819
G1 X120.92 Y106.14 E.03472
G1 X121.564 Y106.84 E.03433
G1 X122.205 Y107.633 E.03684
G1 X122.758 Y108.419 E.03468
G1 X123.267 Y109.258 E.03543
G1 X123.399 Y109.618 E.01386
G1 X123.446 Y109.984 E.01331
G1 X123.405 Y110.355 E.01348
G1 X123.297 Y110.679 E.01234
G1 X122.952 Y111.28 E.02501
G1 X122.519 Y111.935 E.02834
G1 X122.087 Y112.521 E.02629
G1 X121.673 Y113.033 E.02379
G1 X121.246 Y113.517 E.02329
G1 X120.748 Y114.034 E.02593
G1 X120.252 Y114.503 E.02464
G1 X119.676 Y114.998 E.02742
G1 X119.084 Y115.457 E.02705
G1 X118.549 Y115.835 E.02364
G1 X117.817 Y116.297 E.03125
G1 X117.233 Y116.627 E.02422
G1 X116.49 Y116.999 E.03002
G1 X115.57 Y117.393 E.03611
G1 X114.662 Y117.713 E.03477
G1 X113.649 Y117.996 E.03797
G1 X112.661 Y118.203 E.03647
G1 X111.76 Y118.331 E.03286
G1 X110.803 Y118.409 E.03465
G1 X109.824 Y118.426 E.03535
G1 X109.128 Y118.399 E.02514
G1 X85.732 Y116.977 E.84631
G1 X85.481 Y116.946 E.00913
G1 X85.242 Y116.887 E.00889
G1 X84.997 Y116.795 E.00944
G1 X84.771 Y116.675 E.00926
G1 X84.569 Y116.535 E.00888
G1 X84.371 Y116.353 E.00971
G1 X84.081 Y115.96 E.01763
G1 X83.959 Y115.706 E.01017
G1 X83.877 Y115.457 E.00945
G1 X83.821 Y115.172 E.0105
G1 X83.8 Y114.882 E.01049
G1 X83.804 Y105.006 E.35659
G1 X83.838 Y104.723 E.0103
G1 X83.908 Y104.438 E.01059
G1 X84.112 Y103.987 E.01788
G1 X84.266 Y103.769 E.00963
G1 X84.444 Y103.575 E.00953
G1 X84.52 Y103.512 E.00354
G1 E-.56 F2400
;WIPE_START
G1 F6000
G1 X84.662 Y103.396 E-.02204
G1 X84.89 Y103.257 E-.03206
G1 X85.3 Y103.097 E-.05284
G1 X85.757 Y103.021 E-.05553
G1 X86.402 Y102.982 E-.07754
;WIPE_END
G1 X90.412 Y103.754 Z.6 F30000
G1 X121.117 Y107.887
G1 X122.425 Y109.916
G1 X122.426 Y109.923
G1 X122.716 Y109.977
G1 Z.2
G1 E.8 F2400
;TYPE:Outer wall
G1 F6000
G1 X122.699 Y110.175 E.00719
G1 X122.624 Y110.397 E.00847
G1 X122.16 Y111.167 E.03246
G1 X121.523 Y112.116 E.04128
G1 X121.212 Y112.682 E.02331
G1 X120.471 Y113.492 E.03963
G1 X120.142 Y113.809 E.01648
G1 X119.847 Y113.978 E.0123
G1 X119.516 Y114.206 E.0145
G1 X118.655 Y114.869 E.03925
G1 X118.15 Y115.225 E.02232
G1 X117.447 Y115.669 E.02999
G1 X116.894 Y115.981 E.02293
G1 X116.178 Y116.341 E.02893
G1 X115.3 Y116.716 E.03446
G1 X114.45 Y117.015 E.03255
G1 X113.469 Y117.29 E.03679
G1 X112.526 Y117.486 E.03478
G1 X111.671 Y117.608 E.0312
G1 X110.776 Y117.681 E.03241
G1 X109.828 Y117.697 E.03424
G1 X109.169 Y117.672 E.0238
G1 X85.805 Y116.252 E.84516
G1 X85.602 Y116.227 E.00738
G1 X85.412 Y116.176 E.00709
G1 X85.098 Y116.02 E.01265
G1 X84.944 Y115.896 E.00714
G1 X84.841 Y115.783 E.00552
G1 X84.678 Y115.529 E.01091
G1 X84.579 Y115.258 E.0104
G1 X84.531 Y114.95 E.01126
G1 X84.524 Y112.437 E.09074
G1 X84.503 Y111.937 E.01805
G1 X84.405 Y110.961 E.03544
G1 X84.378 Y110.486 E.01717
G1 X84.378 Y109.524 E.03474
G1 X84.398 Y109.048 E.01717
G1 X84.495 Y108.075 E.03532
G1 X84.52 Y107.576 E.01805
G1 X84.531 Y105.065 E.09064
G1 X84.58 Y104.737 E.01197
G1 X84.639 Y104.557 E.00684
G1 X84.73 Y104.373 E.00742
G1 X84.824 Y104.237 E.00595
G1 X84.953 Y104.096 E.00691
G1 X85.233 Y103.9 E.01235
G1 X85.507 Y103.796 E.01058
G1 X85.816 Y103.747 E.01127
G1 X109.183 Y102.327 E.84525
G1 X110.287 Y102.303 E.03988
G1 X111.111 Y102.339 E.02979
G1 X111.912 Y102.42 E.02906
G1 X112.719 Y102.549 E.02952
G1 X113.79 Y102.792 E.03965
G1 X114.577 Y103.026 E.02963
G1 X115.618 Y103.412 E.0401
G1 X116.455 Y103.793 E.03318
G1 X117.352 Y104.274 E.03675
G1 X118.062 Y104.716 E.03022
G1 X118.962 Y105.364 E.04002
G1 X119.746 Y106.022 E.03698
G1 X120.405 Y106.654 E.03296
G1 X121.006 Y107.309 E.03209
G1 X121.618 Y108.066 E.03515
G1 X122.144 Y108.811 E.03292
G1 X122.621 Y109.596 E.03317
G1 X122.686 Y109.771 E.00674
G1 X122.711 Y109.937 E.00608
G1 X122.256 Y109.99 F30000
;TYPE:Inner wall
G1 F6000
G1 X122.248 Y110.08 E.00329
G1 X122.207 Y110.204 E.00471
G1 X121.774 Y110.921 E.03025
G1 X121.127 Y111.886 E.04195
G1 X120.846 Y111.576 E.01512
G1 X120.622 Y111.449 E.0093
G1 X120.074 Y111.29 E.02058
G1 X120.322 Y110.997 E.01385
G1 X120.805 Y110.326 E.02988
G1 X121.076 Y109.91 E.0179
G1 X121.188 Y109.676 E.00939
G1 X121.281 Y109.379 E.01121
G1 X121.322 Y108.973 E.01476
G1 X121.284 Y108.756 E.00795
G1 X121.487 Y108.672 E.00792
G1 X121.762 Y109.061 E.01722
G1 X122.208 Y109.796 E.03103
G1 X122.247 Y109.951 E.00577
G1 E-.56 F2400
;WIPE_START
G1 F6000
G1 X122.248 Y110.08 E-.01554
G1 X122.207 Y110.204 E-.01566
G1 X121.774 Y110.921 E-.10054
G1 X121.271 Y111.671 E-.10827
;WIPE_END
G1 X119.157 Y111.777 Z.6 F30000
G1 Z.2
G1 E.8 F2400
;TYPE:Outer wall
G1 F6000
G1 X119.472 Y111.809 E.01144
G1 X119.707 Y111.761 E.00864
G1 X120.018 Y111.75 E.01124
G1 X120.443 Y111.873 E.01599
G1 X120.556 Y111.937 E.00469
G1 X120.68 Y112.073 E.00664
G1 X120.752 Y112.235 E.00641
G1 X120.792 Y112.63 E.01433
G1 X120.734 Y112.906 E.01018
G1 X120.613 Y113.105 E.00841
G1 X120.38 Y113.261 E.01012
G1 X119.384 Y113.441 E.03656
G1 X118.914 Y113.476 E.01703
G1 X118.233 Y113.474 E.02457
G1 X117.64 Y113.503 E.02142
G1 X117.369 Y113.457 E.00993
G1 X117.149 Y113.337 E.00904
G1 X117.016 Y113.204 E.0068
G1 X116.905 Y113.026 E.00758
G1 X116.839 Y112.849 E.0068
G1 X116.803 Y112.661 E.00693
G1 X116.797 Y112.455 E.00743
G1 X116.874 Y112.093 E.01338
G1 X117.007 Y111.817 E.01106
G1 X117.144 Y111.603 E.00917
G1 X117.848 Y110.688 E.04167
G1 X118.466 Y110.02 E.03286
G1 X118.593 Y109.751 E.01074
G1 X118.356 Y109.725 E.0086
G1 X118.042 Y109.727 E.01131
G1 X117.759 Y109.787 E.01048
G1 X117.322 Y109.664 E.01638
G1 X117.156 Y109.548 E.00732
G1 X117.066 Y109.382 E.00681
G1 X116.991 Y109.091 E.01086
G1 X116.993 Y108.859 E.00836
G1 X117.068 Y108.526 E.01233
G1 X117.171 Y108.361 E.00704
G1 X117.386 Y108.212 E.00942
G1 X117.64 Y108.134 E.00958
G1 X117.885 Y108.09 E.00899
G1 X119.475 Y108.086 E.05742
G1 X120.064 Y108.085 E.02126
G1 X120.323 Y108.139 E.00957
G1 X120.49 Y108.221 E.0067
G1 X120.637 Y108.345 E.00693
G1 X120.797 Y108.624 E.01161
G1 X120.861 Y108.99 E.01341
G1 X120.831 Y109.287 E.0108
G1 X120.762 Y109.508 E.00834
G1 X120.677 Y109.686 E.00713
G1 X120.428 Y110.067 E.01643
G1 X119.961 Y110.716 E.02887
G1 X119.692 Y111.035 E.01508
G1 X119.396 Y111.311 E.01458
G1 X119.26 Y111.464 E.00741
G1 X119.192 Y111.717 E.00944
G1 X119.177 Y111.743 E.00109
G1 E-.56 F2400
;WIPE_START
G1 F6000
G1 X119.472 Y111.809 E-.03631
G1 X119.707 Y111.761 E-.02873
G1 X120.018 Y111.75 E-.03734
G1 X120.443 Y111.873 E-.05314
G1 X120.556 Y111.937 E-.01558
G1 X120.68 Y112.073 E-.02207
G1 X120.752 Y112.235 E-.0213
G1 X120.774 Y112.447 E-.02553
;WIPE_END
G1 X116.337 Y111.565 Z.6 F30000
G1 Z.2
G1 E.8 F2400
;TYPE:Inner wall
G1 F6000
G1 X116.589 Y110.862 E.02695
G1 X116.876 Y109.911 E.03588
G1 X117.124 Y110.083 E.0109
G1 X117.633 Y110.227 E.01909
G1 X117.188 Y110.781 E.02567
G1 X116.768 Y111.343 E.02532
G1 X116.557 Y111.673 E.01414
G1 X116.373 Y111.583 E.0074
G1 E-.56 F2400
;WIPE_START
G1 F6000
G1 X116.589 Y110.862 E-.09024
G1 X116.876 Y109.911 E-.11926
G1 X117.085 Y110.056 E-.0305
;WIPE_END
G1 X112.689 Y113.77 Z.6 F30000
G1 Z.2
G1 E.8 F2400
G1 F6000
G1 X112.229 Y113.9 E.01726
G1 X112.115 Y113.953 E.00453
G1 X111.993 Y113.725 E.00934
G1 X112.09 Y113.665 E.0041
G1 X112.294 Y113.455 E.0106
G1 X112.458 Y113.174 E.01176
G1 X112.554 Y112.766 E.01511
G1 X112.531 Y112.348 E.0151
G1 X112.41 Y111.973 E.01425
G1 X111.661 Y110.701 E.05327
G1 X112.109 Y109.954 E.03145
G1 X112.921 Y112.121 E.08355
G1 X113.179 Y112.71 E.02321
G1 X112.997 Y113.088 E.01513
G1 X112.787 Y113.638 E.02124
G1 X112.713 Y113.737 E.00449
G1 E-.56 F2400
;WIPE_START
G1 F6000
G1 X112.229 Y113.9 E-.06125
G1 X112.115 Y113.953 E-.01507
G1 X111.993 Y113.725 E-.03103
G1 X112.09 Y113.665 E-.01362
G1 X112.294 Y113.455 E-.03522
G1 X112.458 Y113.174 E-.03907
G1 X112.543 Y112.811 E-.04474
;WIPE_END
G1 X114.572 Y110.586 Z.6 F30000
G1 Z.2
G1 E.8 F2400
;TYPE:Outer wall
G1 F6000
G1 X114.798 Y109.876 E.02688
G1 X114.819 Y109.623 E.00916
G1 X114.96 Y108.989 E.02347
G1 X115.101 Y108.66 E.01293
G1 X115.278 Y108.405 E.0112
G1 X115.482 Y108.221 E.00993
G1 X115.732 Y108.119 E.00975
G1 X115.987 Y108.127 E.00921
G1 X116.232 Y108.233 E.00962
G1 X116.461 Y108.501 E.01273
G1 X116.567 Y108.876 E.01408
G1 X116.582 Y109.069 E.00698
G1 X116.506 Y109.555 E.01777
G1 X116.154 Y110.719 E.0439
G1 X115.2 Y113.386 E.10229
G1 X114.817 Y114.374 E.03824
G1 X114.538 Y114.987 E.02434
G1 X114.414 Y115.198 E.00883
G1 X114.219 Y115.448 E.01146
G1 X113.897 Y115.707 E.01491
G1 X113.599 Y115.854 E.012
G1 X113.363 Y115.936 E.00902
G1 X113.037 Y116.009 E.01204
G1 X112.756 Y116.021 E.01016
G1 X112.494 Y115.968 E.00967
G1 X112.321 Y115.882 E.00697
G1 X112.176 Y115.759 E.00683
G1 X112.06 Y115.615 E.00671
G1 X111.943 Y115.37 E.0098
G1 X111.894 Y115.17 E.00742
G1 X111.883 Y114.987 E.00662
G1 X111.938 Y114.727 E.00959
G1 X112.085 Y114.51 E.00947
G1 X112.23 Y114.404 E.00647
G1 X112.389 Y114.33 E.00634
G1 X112.85 Y114.199 E.01731
G1 X112.96 Y114.141 E.00449
G1 X113.089 Y114.023 E.00632
G1 X113.2 Y113.838 E.00778
G1 X113.418 Y113.269 E.02201
G1 X113.598 Y112.894 E.01502
G1 X113.644 Y112.721 E.00645
G1 X113.611 Y112.559 E.00599
G1 X113.344 Y111.949 E.02402
G1 X112.557 Y109.847 E.08105
G1 X112.437 Y109.461 E.01461
G1 X112.405 Y109.032 E.01552
G1 X112.426 Y108.586 E.01614
G1 X112.495 Y108.408 E.00688
G1 X112.625 Y108.254 E.00728
G1 X112.79 Y108.163 E.00679
G1 X113.032 Y108.102 E.00902
G1 X113.315 Y108.107 E.01023
G1 X113.56 Y108.187 E.00929
G1 X113.805 Y108.345 E.01051
G1 X113.976 Y108.557 E.00984
G1 X114.11 Y108.896 E.01319
G1 X114.269 Y109.785 E.03259
G1 X114.354 Y110.052 E.01014
G1 X114.557 Y110.549 E.01936
G1 E-.56 F2400
;WIPE_START
G1 F6000
G1 X114.798 Y109.876 E-.08572
G1 X114.819 Y109.623 E-.03045
G1 X114.96 Y108.989 E-.07799
G1 X115.101 Y108.66 E-.04297
G1 X115.114 Y108.64 E-.00288
;WIPE_END
G1 X114.838 Y108.586 Z.6 F30000
G1 X114.85 Y108.524
G1 X114.919 Y108.399
G1 X115.044 Y108.228
G1 X115.137 Y108.125
G1 X115.289 Y107.993
G1 X115.421 Y107.91
G1 X115.632 Y107.824
G1 X115.862 Y107.794
G1 X118.067 Y107.792
G1 X119.862 Y107.794
G1 X120.09 Y107.801
G1 X120.298 Y107.836
G1 X120.423 Y107.873
G1 X120.424 Y107.873
G1 X120.494 Y107.708
G1 Z.2
G1 E.8 F2400
;TYPE:Inner wall
G1 F6000
G1 X120.111 Y107.628 E.01414
G1 X117.844 Y107.633 E.08185
G1 X117.532 Y107.689 E.01145
G1 X117.184 Y107.796 E.01314
G1 X116.729 Y108.111 E.01997
G1 X116.51 Y107.855 E.01216
G1 X116.088 Y107.672 E.01661
G1 X115.65 Y107.66 E.01585
G1 X115.235 Y107.827 E.01614
G1 X114.933 Y108.101 E.01473
G1 X114.699 Y108.437 E.01478
