; HEADER_BLOCK_START
; generated by Creality_Print V6.0.4.1793 on 2025-03-25 at 11:49:25
; total layer number: 65
; filament_density: 1.24
; filament_diameter: 1.75
; max_z_height: 13.00
; HEADER_BLOCK_END

; MINX = 69.33
; MINY = 76.19
; MINZ = 0.00
; MAXX = 150.67
; MAXY = 143.81
; MAXZ = 13.00

; THUMBNAIL_BLOCK_START

;
; THUMBNAIL_BLOCK_END

; THUMBNAIL_BLOCK_START

;
; THUMBNAIL_BLOCK_END

; external perimeters extrusion width = 0.42mm
; perimeters extrusion width = 0.45mm
; infill extrusion width = 0.45mm
; solid infill extrusion width = 0.42mm
; top infill extrusion width = 0.42mm
; first layer extrusion width = 0.50mm

; EXECUTABLE_BLOCK_START
EXCLUDE_OBJECT_DEFINE NAME=Flexi-Rex-improved.stl_id_0_copy_0 CENTER=110,110 POLYGON=[[69.3312,77.0139],[69.5202,76.5492],[84.1235,76.1891],[133.03,76.3489],[133.325,76.595],[149.989,119.498],[150.669,130.477],[149.726,141.639],[146.058,143.811],[117.333,135.601],[70.01,78.6223],[69.3312,77.0139]]
M73 P0 R38
M106 S0
M106 P2 S0
;TYPE:Custom
M140 S0
M104 S0 
START_PRINT EXTRUDER_TEMP=220 BED_TEMP=50
T0
M204 S2000
G1 Z3 F600
M83
G92 E0
G1 Z1 F600
G90
G21
M83 ; use relative distances for extrusion
G1 E-.8 F2400
M106 S0
;LAYER_CHANGE
;Z:0.2
;HEIGHT:0.2
;BEFORE_LAYER_CHANGE
;0.2
G92 E0

;AFTER_LAYER_CHANGE
;0.2
;_SET_FAN_SPEED_CHANGING_LAYER
SET_VELOCITY_LIMIT ACCEL=1000 ACCEL_TO_DECEL=1000
SET_VELOCITY_LIMIT SQUARE_CORNER_VELOCITY=20
; printing object Flexi-Rex-improved.stl id:0 copy 0
EXCLUDE_OBJECT_START NAME=Flexi-Rex-improved.stl_id_0_copy_0
G1 Z.4 F30000
G1 X122.915 Y121.626
G1 Z.2
G1 E.8 F2400
;TYPE:Inner wall
;WIDTH:0.499999
G1 F3600
G1 X123.068 Y121.65 E.00557
G1 X123.545 Y121.561 E.01751
G1 X126.85 Y120.358 E.12702
G1 X127.35 Y120.035 E.0215
G1 X127.549 Y119.818 E.01064
G1 X127.774 Y119.347 E.01881
G1 X127.834 Y118.944 E.01474
G1 X127.745 Y118.438 E.01854
G1 X126.548 Y115.148 E.12642
G1 X132.983 Y112.806 E.24725
G1 X147.102 Y117.642 E.53886
G1 X148.584 Y119.698 E.09153
G1 X146.982 Y124.209 E.17283
G1 X146.668 Y124.102 E.01197
G1 X145.156 Y121.071 E.1223
G1 X144.914 Y120.801 E.01312
G1 X144.765 Y120.728 E.00597
G1 X144.442 Y120.699 E.0117
G1 X144.229 Y120.767 E.00807
G1 X141.265 Y122.291 E.12033
G1 X139.272 Y118.912 E.14163
G1 X139.013 Y118.66 E.01307
G1 X138.789 Y118.583 E.00855
G1 X138.513 Y118.596 E.00996
G1 X138.329 Y118.672 E.00718
G1 X135.391 Y120.433 E.1237
G1 X131.727 Y118.805 E.14474
G1 X131.42 Y118.747 E.0113
G1 X131.214 Y118.788 E.00756
G1 X130.922 Y118.993 E.01289
G1 X130.817 Y119.166 E.00733
G1 X130.766 Y119.487 E.01172
G2 X131.521 Y128.53 I807.226 J-62.877 E.32766
G1 X131.671 Y128.838 E.01235
G1 X131.904 Y129.015 E.01058
G1 X132.173 Y129.079 E.00999
G1 X132.459 Y129.025 E.01052
G1 X136.392 Y127.367 E.15412
G1 X138.336 Y131.168 E.15412
G1 X138.506 Y131.409 E.01066
G1 X138.783 Y131.564 E.01144
G1 X139.11 Y131.576 E.01181
G1 X139.365 Y131.466 E.01004
G1 X142.468 Y129.288 E.13689
G1 X144.525 Y132.972 E.15234
G1 X144.788 Y133.175 E.01201
G1 X145.117 Y133.237 E.01208
G1 X145.424 Y133.143 E.01161
G1 X148.917 Y131.081 E.14643
G1 X149.34 Y131.267 E.01672
G1 X148.528 Y140.887 E.34859
G1 X145.883 Y142.453 E.11097
G1 X127.053 Y137.071 E.70713
G1 X127.305 Y136.901 E.01101
G1 X127.905 Y134.803 E.07878
G1 X127.819 Y134.435 E.01362
G1 X127.643 Y134.216 E.01014
G1 X127.396 Y134.087 E.01006
G1 X124.837 Y133.355 E.0961
G1 X125.449 Y133.196 E.02284
G1 X126.216 Y132.77 E.03165
G1 X126.801 Y132.223 E.02895
G1 X127.095 Y131.801 E.01854
G1 X127.443 Y130.999 E.03158
G1 X127.572 Y130.134 E.03158
G1 X127.472 Y129.263 E.03165
G1 X127.234 Y128.609 E.02513
G1 X126.913 Y128.08 E.02233
G1 X126.305 Y127.452 E.03158
G1 X125.696 Y127.064 E.02609
G1 X125.141 Y126.853 E.02142
G1 X124.322 Y126.722 E.02997
G1 X123.743 Y126.766 E.02094
G1 X122.99 Y126.957 E.02807
G1 X122.223 Y127.383 E.03165
G1 X121.71 Y127.853 E.02513
G1 X121.344 Y128.352 E.02233
G1 X120.996 Y129.154 E.03158
G1 X120.867 Y130.019 E.03158
G1 X120.967 Y130.89 E.03165
G1 X121.205 Y131.544 E.02513
G1 X121.526 Y132.073 E.02233
G1 X121.943 Y132.528 E.02229
G1 X121.123 Y132.294 E.03081
G1 X120.794 Y132.282 E.01186
G1 X120.52 Y132.407 E.01088
G1 X120.275 Y132.765 E.01566
G1 X119.713 Y134.73 E.07382
G1 X119.873 Y135.019 E.01193
G1 X118.379 Y134.592 E.05614
G1 X114.676 Y119.646 E.55596
G1 X116.86 Y118.673 E.0863
G1 X120.428 Y117.375 E.1371
G1 X121.732 Y120.898 E.13566
G1 X122.099 Y121.322 E.02023
G1 X122.543 Y121.567 E.01832
G1 X122.876 Y121.619 E.01214
G1 X122.401 Y120.962 F30000
;TYPE:Outer wall
G1 F3600
G1 X122.641 Y121.113 E.01026
G1 X122.997 Y121.19 E.01315
G1 X123.388 Y121.132 E.01427
G1 X126.694 Y119.929 E.12702
G1 X127.087 Y119.661 E.01717
G1 X127.297 Y119.341 E.01383
G1 X127.373 Y118.985 E.01315
G1 X127.316 Y118.594 E.01427
G1 X125.962 Y114.874 E.14293
G1 X132.978 Y112.321 E.26958
G1 X147.387 Y117.257 E.54994
G1 X149.095 Y119.626 E.10544
G1 X147.262 Y124.787 E.19776
G1 X146.343 Y124.475 E.03504
G1 X144.747 Y121.275 E.12909
G1 X144.617 Y121.161 E.00626
G1 X144.438 Y121.174 E.00646
G1 X141.091 Y122.894 E.13589
G1 X138.851 Y119.098 E.15913
G1 X138.717 Y119.035 E.00536
G1 X138.564 Y119.064 E.00563
G1 X135.422 Y120.947 E.13227
G1 X131.467 Y119.19 E.15626
G1 X131.273 Y119.286 E.0078
G1 X131.221 Y119.45 E.00624
G1 X131.902 Y127.647 E.29698
G1 X132 Y128.517 E.03159
G1 X132.115 Y128.608 E.00531
G1 X132.279 Y128.605 E.00595
G1 X136.606 Y126.781 E.16954
G1 X138.786 Y131.043 E.17286
G1 X138.946 Y131.132 E.00662
G1 X139.102 Y131.092 E.00583
G1 X142.621 Y128.623 E.15518
G1 X144.876 Y132.664 E.16711
G1 X145.013 Y132.772 E.0063
G1 X145.192 Y132.749 E.00652
G1 X148.886 Y130.568 E.15489
G1 X149.823 Y130.98 E.03697
G1 X148.963 Y141.161 E.3689
G1 X145.947 Y142.947 E.12658
G1 X127.34 Y137.629 E.69872
;WIDTH:0.502531
G1 X119.299 Y135.33 E.30364
;WIDTH:0.499999
G1 X117.999 Y134.959 E.04882
G1 X114.141 Y119.384 E.57934
G1 X116.689 Y118.249 E.1007
G1 X120.7 Y116.789 E.15413
G1 X122.11 Y120.632 E.1478
G1 X122.333 Y120.919 E.01312
G1 X122.367 Y120.94 E.00143
G1 E-.56 F2400
;WIPE_START
G1 F3600
G1 X122.641 Y121.113 E-.03891
G1 X122.997 Y121.19 E-.0437
G1 X123.388 Y121.132 E-.04741
G1 X124.249 Y120.818 E-.10998
;WIPE_END
G1 X123.888 Y128.442 Z.6 F30000
G1 X123.675 Y132.933 Z.6
G1 Z.2
G1 E.8 F2400
;WIDTH:0.579201
G1 F3600
G1 X123.373 Y132.871 E.01306
;WIDTH:0.543849
G1 X122.955 Y132.709 E.01775
G1 X122.379 Y132.316 E.02759
;WIDTH:0.499999
G1 X121.863 Y131.764 E.0273
G1 X121.634 Y131.388 E.01589
G1 X121.396 Y130.734 E.02513
G1 X121.323 Y129.979 E.02737
G1 X121.446 Y129.233 E.0273
G1 X121.759 Y128.545 E.0273
G1 X122.019 Y128.19 E.01589
G1 X122.532 Y127.72 E.02513
G1 X123.201 Y127.363 E.02737
G1 X123.842 Y127.213 E.02379
G1 X124.345 Y127.179 E.01818
G1 X125.062 Y127.303 E.02628
G1 X125.472 Y127.463 E.01589
G1 X126.06 Y127.837 E.02516
G1 X126.576 Y128.389 E.0273
G1 X126.805 Y128.765 E.01589
G1 X127.043 Y129.419 E.02513
G1 X127.116 Y130.174 E.02737
G1 X126.993 Y130.92 E.0273
G1 X126.68 Y131.608 E.0273
G1 X126.42 Y131.963 E.01589
G1 X125.907 Y132.433 E.02513
G1 X125.238 Y132.79 E.02737
G1 X124.503 Y132.961 E.02727
;WIDTH:0.5396
G1 X124.279 Y132.986 E.00882
;WIDTH:0.579201
G1 X124.056 Y133.01 E.00952
G1 X123.715 Y132.941 E.01474
G1 E-.56 F2400
;WIPE_START
G1 F3600
G1 X123.373 Y132.871 E-.0418
G1 X122.955 Y132.709 E-.05383
G1 X122.379 Y132.316 E-.08366
G1 X122.034 Y131.947 E-.06071
;WIPE_END
G1 X120.932 Y132.724 Z.6 F30000
G1 Z.2
G1 E.8 F2400
;WIDTH:0.499999
G1 F3600
G1 X121.894 Y132.989 E.03601
;WIDTH:0.543849
G3 X123.261 Y133.358 I-6.377 J26.386 E.05605
;WIDTH:0.579201
G3 X124.207 Y133.63 I-.963 J5.128 E.04177
;WIDTH:0.5396
G1 X124.479 Y133.729 E.01135
;WIDTH:0.499999
G1 X127.271 Y134.526 E.10482
G1 X127.412 Y134.642 E.00659
G1 X127.428 Y134.809 E.00604
G1 X126.866 Y136.775 E.07383
;WIDTH:0.502501
G1 X126.62 Y136.944 E.01082
G1 X120.309 Y135.14 E.23828
G1 X120.153 Y134.856 E.01177
;WIDTH:0.499999
G1 X120.714 Y132.89 E.07382
G3 X120.892 Y132.728 I.22 J.063 E.00915
G1 E-.56 F2400
;WIPE_START
G1 F3600
G1 X121.894 Y132.989 E-.12415
G1 X122.826 Y133.241 E-.11585
;WIPE_END
G1 X129.6 Y129.725 Z.6 F30000
G1 X148.329 Y120.008 Z.6
G1 Z.2
G1 E.8 F2400
;TYPE:Bottom surface
;WIDTH:0.500706
G1 F3600
G1 X145.92 Y117.6 E.12316
G1 X144.936 Y117.262 E.03764
G1 X147.998 Y120.325 E.1566
G1 X147.828 Y120.802 E.01833
G1 X143.951 Y116.925 E.19828
G1 X142.966 Y116.588 E.03764
G1 X147.658 Y121.28 E.23996
G1 X147.489 Y121.758 E.01833
G1 X141.981 Y116.25 E.28164
G1 X140.997 Y115.913 E.03764
G1 X147.319 Y122.235 E.32333
G1 X147.149 Y122.713 E.01833
G1 X140.012 Y115.576 E.36501
G1 X139.027 Y115.238 E.03764
G1 X144.207 Y120.418 E.26487
G2 X143.763 Y120.622 I.395 J1.444 E.01773
G1 X138.043 Y114.901 E.29255
G1 X137.058 Y114.564 E.03764
G1 X143.335 Y120.841 E.32104
G1 X142.908 Y121.061 E.01739
G1 X136.073 Y114.227 E.34953
G1 X135.088 Y113.889 E.03764
G1 X142.48 Y121.281 E.37802
G1 X142.052 Y121.501 E.01739
G1 X139.967 Y119.416 E.10662
G1 X139.563 Y118.73 E.02879
G2 X138.793 Y118.241 I-.866 J.513 E.03422
G1 X134.104 Y113.552 E.23983
G1 X133.119 Y113.215 E.03764
G1 X138.244 Y118.339 E.26208
G2 X137.829 Y118.572 I.588 J1.53 E.01725
G1 X132.575 Y113.319 E.26868
G1 X132.101 Y113.491 E.01827
G1 X137.424 Y118.815 E.27225
G1 X137.02 Y119.057 E.01707
G1 X131.626 Y113.664 E.27582
G1 X131.151 Y113.837 E.01827
G1 X136.615 Y119.3 E.2794
G1 X136.21 Y119.543 E.01707
G1 X130.677 Y114.01 E.28297
G1 X130.202 Y114.182 E.01827
G1 X135.805 Y119.785 E.28654
G1 X135.4 Y120.028 E.01707
G1 X129.727 Y114.355 E.29011
G1 X129.253 Y114.528 E.01827
G1 X134.298 Y119.572 E.25799
G1 X133.132 Y119.055 E.04611
G1 X128.778 Y114.701 E.22267
G1 X128.303 Y114.873 E.01827
G1 X131.967 Y118.537 E.18736
G2 X131.216 Y118.433 I-.522 J1.012 E.02795
G1 X127.829 Y115.046 E.17322
G1 X127.354 Y115.219 E.01827
G1 X130.793 Y118.657 E.17584
G2 X130.514 Y119.026 I.476 J.649 E.01695
G1 X127.07 Y115.582 E.17611
G1 X127.439 Y116.598 E.03909
G1 X130.439 Y119.598 E.15341
G1 X130.497 Y120.304 E.02559
G1 X127.808 Y117.614 E.13752
G1 X128.094 Y118.405 E.03041
G1 X128.121 Y118.575 E.00623
G1 X130.555 Y121.009 E.12446
G1 X130.613 Y121.714 E.02559
G1 X128.136 Y119.237 E.12667
G3 X127.99 Y119.739 I-2.241 J-.377 E.01894
G1 X130.671 Y122.42 E.13707
G1 X130.729 Y123.125 E.02559
G1 X127.727 Y120.123 E.1535
G3 X127.386 Y120.43 I-.866 J-.622 E.01671
G1 X130.786 Y123.83 E.17392
G1 X130.844 Y124.536 E.02559
G1 X126.982 Y120.674 E.1975
G1 X126.509 Y120.847 E.01825
G1 X130.902 Y125.241 E.22469
G1 X130.96 Y125.946 E.02559
G1 X126.034 Y121.02 E.25193
G1 X125.559 Y121.193 E.01827
G1 X131.018 Y126.652 E.27917
G1 X131.076 Y127.357 E.02559
G1 X125.085 Y121.366 E.30641
G1 X124.61 Y121.538 E.01827
G1 X131.359 Y128.287 E.34515
G1 E-.56 F2400
;WIPE_START
G1 F3600
G1 X129.945 Y126.873 E-.24
;WIPE_END
G1 X136.423 Y122.838 Z.6 F30000
G1 X140.316 Y120.412 Z.6
G1 Z.2
G1 E.8 F2400
G1 F3600
G1 X141.777 Y121.873 E.07472
G1 E-.56 F2400
;WIPE_START
G1 F3600
G1 X140.363 Y120.459 E-.24
;WIPE_END
G1 X145.763 Y121.974 Z.6 F30000
G1 Z.2
G1 E.8 F2400
G1 F3600
G1 X147.141 Y123.352 E.07045
G1 E-.56 F2400
;WIPE_START
G1 F3600
G1 X145.763 Y121.974 E-.24
;WIPE_END
G1 X142.427 Y128.839 Z.6 F30000
G1 X141.952 Y129.817 Z.6
G1 Z.2
G1 E.8 F2400
G1 F3600
G1 X143.439 Y131.304 E.07603
G1 E-.56 F2400
;WIPE_START
G1 F3600
G1 X142.025 Y129.889 E-.24
;WIPE_END
G1 X148.689 Y131.374 Z.6 F30000
G1 Z.2
G1 E.8 F2400
G1 F3600
G1 X148.964 Y131.649 E.01407
G1 X148.914 Y132.246 E.02166
G1 X148.432 Y131.765 E.02463
G1 X148.025 Y132.005 E.01709
G1 X148.863 Y132.843 E.04287
G1 X148.813 Y133.44 E.02166
G1 X147.618 Y132.246 E.0611
G1 X147.211 Y132.486 E.01709
G1 X148.762 Y134.037 E.07934
G1 X148.712 Y134.634 E.02166
G1 X146.804 Y132.726 E.09758
G1 X146.397 Y132.967 E.01709
G1 X148.662 Y135.231 E.11581
G1 X148.611 Y135.828 E.02166
G1 X145.99 Y133.207 E.13405
G1 X145.582 Y133.446 E.01711
G1 X148.561 Y136.425 E.15234
G1 X148.51 Y137.022 E.02166
G1 X145.065 Y133.577 E.17617
G3 X144.233 Y133.143 I.048 J-1.106 E.03509
G1 X143.727 Y132.239 E.03746
G1 X141.719 Y130.231 E.10265
G1 X141.339 Y130.498 E.01681
G1 X148.46 Y137.619 E.36418
G1 X148.409 Y138.216 E.02166
G1 X140.958 Y130.765 E.38107
M73 P0 R37
G1 X140.577 Y131.032 E.01681
M73 P0 R37
G1 X148.359 Y138.813 E.39796
G1 X148.309 Y139.41 E.02166
G1 X140.197 Y131.298 E.41484
G1 X139.816 Y131.565 E.01681
G1 X148.258 Y140.007 E.43173
G1 X148.208 Y140.604 E.02166
G1 X139.272 Y131.668 E.45698
G1 E-.56 F2400
;WIPE_START
G1 F3600
G1 X140.686 Y133.082 E-.24
;WIPE_END
G1 X136.889 Y128.638 Z.6 F30000
G1 Z.2
G1 E.8 F2400
G1 F3600
G1 X136.109 Y127.858 E.03987
G1 X135.654 Y128.05 E.01788
G1 X137.567 Y129.964 E.09788
G1 E-.56 F2400
;WIPE_START
G1 F3600
G1 X136.153 Y128.55 E-.24
;WIPE_END
G1 X135.041 Y128.085 Z.6 F30000
G1 Z.2
G1 E.8 F2400
G1 F3600
G1 X137.773 Y130.817 E.13971
G1 X138.088 Y131.432 E.025
G2 X138.884 Y131.928 I.877 J-.522 E.03523
G1 X147.848 Y140.892 E.45842
G1 X147.441 Y141.132 E.01709
G1 X134.742 Y128.434 E.64942
G1 X134.287 Y128.625 E.01788
G1 X147.035 Y141.373 E.65193
G1 X146.628 Y141.614 E.01709
G1 X133.831 Y128.817 E.65443
G1 X133.376 Y129.009 E.01788
G1 X146.221 Y141.855 E.65694
M73 P1 R37
G1 X145.836 Y142.083 E.01621
M73 P1 R37
G1 X145.789 Y142.07 E.00175
G1 X132.92 Y129.201 E.65813
G1 X132.52 Y129.369 E.01568
G1 X132.454 Y129.382 E.00245
G1 X144.883 Y141.811 E.63562
G1 X143.976 Y141.552 E.03409
G1 X124.135 Y121.711 E1.01466
G1 X123.661 Y121.884 E.01827
G1 X143.07 Y141.293 E.99258
G1 X142.163 Y141.034 E.03409
G1 X122.905 Y121.776 E.98486
G1 E-.56 F2400
;WIPE_START
G1 F3600
G1 X124.319 Y123.19 E-.24
;WIPE_END
G1 X120.937 Y119.16 Z.6 F30000
G1 Z.2
G1 E.8 F2400
G1 F3600
G1 X119.76 Y117.983 E.06022
G1 X119.285 Y118.156 E.01827
G1 X121.313 Y120.183 E.10369
G1 E-.56 F2400
;WIPE_START
G1 F3600
G1 X119.898 Y118.769 E-.24
;WIPE_END
G1 X118.65 Y118.168 Z.6 F30000
G1 Z.2
G1 E.8 F2400
G1 F3600
G1 X141.257 Y140.775 E1.15612
G1 X140.35 Y140.515 E.03409
G1 X118.336 Y118.501 E1.12583
G1 X117.861 Y118.674 E.01827
G1 X139.444 Y140.256 E1.10374
G1 X138.537 Y139.997 E.03409
G1 X127.836 Y129.296 E.54725
G1 X127.905 Y130.012 E.026
G1 X137.631 Y139.738 E.4974
G1 X136.724 Y139.479 E.03409
G1 X127.858 Y130.613 E.45343
G1 X127.758 Y131.16 E.02013
G1 X135.818 Y139.22 E.41218
G1 X134.911 Y138.961 E.03409
G1 X127.558 Y131.607 E.37606
G3 X127.348 Y132.045 I-2.048 J-.714 E.01758
G1 X134.005 Y138.702 E.34044
G1 X133.098 Y138.443 E.03409
G1 X127.079 Y132.424 E.30782
G1 X126.748 Y132.74 E.01656
G1 X132.192 Y138.184 E.27837
G1 X131.285 Y137.924 E.03409
G1 X128.222 Y134.862 E.15663
G2 X127.534 Y133.771 I-1.02 J-.119 E.05044
G1 X126.97 Y133.609 E.02123
G1 X126.411 Y133.05 E.02858
G3 X126.006 Y133.293 I-1.123 J-1.417 E.01712
G1 X126.362 Y133.649 E.01823
G1 E-.56 F2400
;WIPE_START
G1 F3600
G1 X126.006 Y133.293 E-.0605
G1 X126.234 Y133.174 E-.0309
G1 X126.411 Y133.05 E-.02586
G1 X126.97 Y133.609 E-.09485
G1 X127.193 Y133.673 E-.0279
;WIPE_END
G1 X127.929 Y135.216 Z.6 F30000
G1 Z.2
G1 E.8 F2400
G1 F3600
G1 X130.379 Y137.665 E.12528
G1 X129.472 Y137.406 E.03409
G1 X127.95 Y135.884 E.07782
G1 X127.806 Y136.387 E.01892
G1 X128.865 Y137.447 E.05418
G1 E-.56 F2400
;WIPE_START
G1 F3600
G1 X127.806 Y136.387 E-.17981
G1 X127.944 Y135.905 E-.06019
;WIPE_END
G1 X125.821 Y128.574 Z.6 F30000
G1 X125.294 Y126.755 Z.6
G1 Z.2
G1 E.8 F2400
G1 F3600
G1 X117.386 Y118.847 E.40442
G2 X116.916 Y119.024 I1.031 J3.451 E.01819
G1 X124.273 Y126.38 E.37623
G1 X123.863 Y126.393 E.01484
G1 X123.679 Y126.433 E.00682
G1 X116.468 Y119.223 E.36874
G1 X116.02 Y119.423 E.01773
G1 X123.146 Y126.549 E.36444
G2 X122.683 Y126.733 I.367 J1.597 E.0181
G1 X115.572 Y119.622 E.36366
G1 X115.124 Y119.821 E.01773
G1 X122.262 Y126.959 E.36503
G2 X121.887 Y127.231 I.363 J.896 E.01693
G1 X115.269 Y120.614 E.33841
G1 X115.483 Y121.475 E.03206
G1 X121.547 Y127.539 E.31012
G2 X121.249 Y127.889 I1.123 J1.256 E.01666
G1 X115.696 Y122.335 E.28401
G1 X115.909 Y123.196 E.03206
G1 X120.998 Y128.284 E.26024
G1 X120.792 Y128.726 E.01762
G1 X116.122 Y124.056 E.23881
G1 X116.335 Y124.917 E.03206
G1 X120.637 Y129.218 E.21998
G1 X120.54 Y129.769 E.02021
G1 X116.548 Y125.777 E.20411
G1 X116.762 Y126.638 E.03206
G1 X120.565 Y130.441 E.19451
